cutejava-front/src/assets/icons/svg/printer.svg

<?xml version="1.0" standalone="no"?><!DOCTYPE svg PUBLIC "-//W3C//DTD SVG 1.1//EN" "http://www.w3.org/Graphics/SVG/1.1/DTD/svg11.dtd"><svg t="1608283086772" class="icon" viewBox="0 0 1024 1024" version="1.1" xmlns="http://www.w3.org/2000/svg" p-id="4493" xmlns:xlink="http://www.w3.org/1999/xlink" width="200" height="200"><defs><style type="text/css"></style></defs><path d="M872 736h-112a24 24 0 0 1 0-48H864V392a40 40 0 0 0-40-40h-608a40 40 0 0 0-40 40V688h104a24 24 0 0 1 0 48h-112A40 40 0 0 1 128 696v-304a88.16 88.16 0 0 1 88-88h608a88.16 88.16 0 0 1 88 88v304a40 40 0 0 1-40 40z" p-id="4494"></path><path d="M728 352h-416a40 40 0 0 1-40-40v-160A40 40 0 0 1 312 112h416A40 40 0 0 1 768 152v160a40 40 0 0 1-40 40zM320 304h400v-144H320zM728 896h-416a40 40 0 0 1-40-40v-224a72.16 72.16 0 0 1 72-72h352a72.16 72.16 0 0 1 72 72v224a40 40 0 0 1-40 40zM320 848h400V632a24 24 0 0 0-24-24h-352a24 24 0 0 0-24 24zM344 480h-32a24 24 0 0 1 0-48h32a24 24 0 0 1 0 48z" p-id="4495"></path></svg>

<svg class="icon" viewBox="0 0 1024 1024" xmlns="http://www.w3.org/2000/svg" width="200" height="200"><defs><style/></defs><path d="M872 736H760a24 24 0 0 1 0-48h104V392a40 40 0 0 0-40-40H216a40 40 0 0 0-40 40v296h104a24 24 0 0 1 0 48H168a40 40 0 0 1-40-40V392a88.16 88.16 0 0 1 88-88h608a88.16 88.16 0 0 1 88 88v304a40 40 0 0 1-40 40z"/><path d="M728 352H312a40 40 0 0 1-40-40V152a40 40 0 0 1 40-40h416a40 40 0 0 1 40 40v160a40 40 0 0 1-40 40zm-408-48h400V160H320zm408 592H312a40 40 0 0 1-40-40V632a72.16 72.16 0 0 1 72-72h352a72.16 72.16 0 0 1 72 72v224a40 40 0 0 1-40 40zm-408-48h400V632a24 24 0 0 0-24-24H344a24 24 0 0 0-24 24zm24-368h-32a24 24 0 0 1 0-48h32a24 24 0 0 1 0 48z"/></svg>
